X:1
T:Andrew Ross (Andrew Rose)
M:4/4
L:1/4
K:Bb
 F3/2 F/2 F3/2 F/2| F F D B,| F3/2 F/2 F G| A F B3/2 B/2| B D E3/2 B/2|\
 A G F B,| F FC/2-D/2 E/2F/2| G F B,2|
